modules/coreui-icons-brand/icons/prettier.svg

<svg xmlns="http://www.w3.org/2000/svg" width="32" height="32" viewBox="0 0 32 32"><path d="M11.427 31.24c0 .422-.339.76-.76.76h-7.62c-1.016 0-1.016-1.526 0-1.526h7.62c.422 0 .76.344.76.766zm-.76-3.813H9.141c-1.016 0-1.016 1.526 0 1.526h1.526c1.016 0 1.016-1.526 0-1.526zm-7.62 1.526h3.047c1.016 0 1.016-1.526 0-1.526H3.047c-1.016 0-1.016 1.526 0 1.526zm7.62-4.573h-7.62c-1.016 0-1.016 1.526 0 1.526h7.62c1.016 0 1.016-1.526 0-1.526zm10.666-3.047H7.619c-1.016 0-1.016 1.526 0 1.526h13.714c1.016 0 1.016-1.526 0-1.526zM3.047 22.859h1.526c1.016 0 1.016-1.526 0-1.526H3.047c-1.016 0-1.016 1.526 0 1.526zm22.859-4.573h-4.573c-1.016 0-1.016 1.521 0 1.521h4.573c1.016 0 1.016-1.521 0-1.521zm-13.713 1.521h6.094c1.016 0 1.016-1.521 0-1.521h-6.094c-1.016 0-1.016 1.521 0 1.521zm-9.146 0h6.094c1.016 0 1.016-1.521 0-1.521H3.047c-1.016 0-1.016 1.521 0 1.521zm24.38-4.567H15.239c-1.016 0-1.016 1.521 0 1.521h12.188c1.016 0 1.016-1.521 0-1.521zM12.953 16a.76.76 0 00-.76-.76H7.62c-1.016 0-1.016 1.521 0 1.521h4.573a.76.76 0 00.76-.76zm-9.906.76h1.526c1.016 0 1.016-1.521 0-1.521H3.047c-1.016 0-1.016 1.521 0 1.521zm25.906-4.567h-7.62c-1.016 0-1.016 1.521 0 1.521h7.62c1.016 0 1.016-1.521 0-1.521zM3.047 13.714h7.62c1.016 0 1.016-1.521 0-1.521h-7.62c-1.016 0-1.016 1.521 0 1.521zm17.526-3.808c0 .417.339.76.76.76h7.62c1.016 0 1.016-1.526 0-1.526h-7.62a.762.762 0 00-.76.766zM9.141 9.141c-1.016 0-1.016 1.526 0 1.526h1.526c1.016 0 1.016-1.526 0-1.526zm-6.094 1.526h3.047c1.016 0 1.016-1.526 0-1.526H3.047c-1.016 0-1.016 1.526 0 1.526zm22.094-3.808c0 .417.344.76.766.76h1.521c1.016 0 1.016-1.526 0-1.526h-1.521a.762.762 0 00-.76.766zm-1.521 0a.766.766 0 00-.76-.766h-6.099c-1.016 0-1.016 1.526 0 1.526h6.094a.766.766 0 00.766-.76zM3.047 7.62h10.667c1.016 0 1.016-1.526 0-1.526H3.047c-1.016 0-1.016 1.526 0 1.526zm6.859-3.813c0 .422.339.766.76.766h15.24c1.016 0 1.016-1.526 0-1.526h-15.24a.76.76 0 00-.76.76zm-6.859.766H7.62c1.016 0 1.016-1.526 0-1.526H3.047c-1.016 0-1.016 1.526 0 1.526zm0-3.047h18.286c1.016 0 1.016-1.526 0-1.526H3.047c-1.016 0-1.016 1.526 0 1.526z"/></svg>

<svg version="1.1" xmlns="http://www.w3.org/2000/svg" width="32" height="32" viewBox="0 0 32 32">
<title>prettier</title>
<path d="M11.427 31.24c0 0.422-0.339 0.76-0.76 0.76h-7.62c-1.016 0-1.016-1.526 0-1.526h7.62c0.422 0 0.76 0.344 0.76 0.766zM10.667 27.427h-1.526c-1.016 0-1.016 1.526 0 1.526h1.526c1.016 0 1.016-1.526 0-1.526zM3.047 28.953h3.047c1.016 0 1.016-1.526 0-1.526h-3.047c-1.016 0-1.016 1.526 0 1.526zM10.667 24.38h-7.62c-1.016 0-1.016 1.526 0 1.526h7.62c1.016 0 1.016-1.526 0-1.526zM21.333 21.333h-13.714c-1.016 0-1.016 1.526 0 1.526h13.714c1.016 0 1.016-1.526 0-1.526zM3.047 22.859h1.526c1.016 0 1.016-1.526 0-1.526h-1.526c-1.016 0-1.016 1.526 0 1.526zM25.906 18.286h-4.573c-1.016 0-1.016 1.521 0 1.521h4.573c1.016 0 1.016-1.521 0-1.521zM12.193 19.807h6.094c1.016 0 1.016-1.521 0-1.521h-6.094c-1.016 0-1.016 1.521 0 1.521zM3.047 19.807h6.094c1.016 0 1.016-1.521 0-1.521h-6.094c-1.016 0-1.016 1.521 0 1.521zM27.427 15.24h-12.188c-1.016 0-1.016 1.521 0 1.521h12.188c1.016 0 1.016-1.521 0-1.521zM12.953 16c0-0.422-0.344-0.76-0.76-0.76h-4.573c-1.016 0-1.016 1.521 0 1.521h4.573c0.417 0 0.76-0.339 0.76-0.76zM3.047 16.76h1.526c1.016 0 1.016-1.521 0-1.521h-1.526c-1.016 0-1.016 1.521 0 1.521zM28.953 12.193h-7.62c-1.016 0-1.016 1.521 0 1.521h7.62c1.016 0 1.016-1.521 0-1.521zM3.047 13.714h7.62c1.016 0 1.016-1.521 0-1.521h-7.62c-1.016 0-1.016 1.521 0 1.521zM20.573 9.906c0 0.417 0.339 0.76 0.76 0.76h7.62c1.016 0 1.016-1.526 0-1.526h-7.62c-0.422 0-0.76 0.344-0.76 0.766zM9.141 9.141c-1.016 0-1.016 1.526 0 1.526h1.526c1.016 0 1.016-1.526 0-1.526zM3.047 10.667h3.047c1.016 0 1.016-1.526 0-1.526h-3.047c-1.016 0-1.016 1.526 0 1.526zM25.141 6.859c0 0.417 0.344 0.76 0.766 0.76h1.521c1.016 0 1.016-1.526 0-1.526h-1.521c-0.422 0-0.76 0.344-0.76 0.766zM23.62 6.859c0-0.422-0.344-0.766-0.76-0.766h-6.099c-1.016 0-1.016 1.526 0 1.526h6.094c0.422 0 0.766-0.344 0.766-0.76zM3.047 7.62h10.667c1.016 0 1.016-1.526 0-1.526h-10.667c-1.016 0-1.016 1.526 0 1.526zM9.906 3.807c0 0.422 0.339 0.766 0.76 0.766h15.24c1.016 0 1.016-1.526 0-1.526h-15.24c-0.422 0-0.76 0.344-0.76 0.76zM3.047 4.573h4.573c1.016 0 1.016-1.526 0-1.526h-4.573c-1.016 0-1.016 1.526 0 1.526zM3.047 1.526h18.286c1.016 0 1.016-1.526 0-1.526h-18.286c-1.016 0-1.016 1.526 0 1.526z"></path>
</svg>
